X:99
T:Welch Rabbit. JJo8.099, The
%%VWML:JohnsonVol8-2184-p50-0
F:http://www.vwml.org/record/JohnsonVol8/2184/p50
Z:Transcribed by Simon Furey and Lewis Jones
Z:vmp.Simon Wilson 2013 www.village-music-project.org.uk
Z:Dance added by John Chambers 2017
M:6/8
L:1/8
%Q:3/8=120
K:D
|:\
D2EF2G | AFA BGB |\
ABc def | edcd3 :|\
|:\
f2g afa | bag fed |
f2g afa | ged cBA |\
f2g agf | e2f gfe |\
fga efg | f3d3 :|
W: First Cu. cast off one Cu. .| cast up back
W:again :| 1st and 2d Men foot it to
W:their Partners and turn Sides :||. foot it Sides
W:and turn Partners :||: 1st Man foot it to the 2d
W:Wo. and not turn .| 1st Wo. and 2d Man the
W:same :| hands 4 round 1st Cu. slip down the
W:Middle one Cu. :||. Right hands & Left. :||:
W:
T:Nimble Nine Pence. JJo8.100, The
B:J.Johnson Choice Collection Vol 8 1758
Z:vmp.Simon Wilson 2013 www.village-music-project.org.uk
Z:Dance added by John Chambers 2017
M:6/8
L:1/8
%Q:3/8=120
K:A
|:\
A2E A2c | dcB c2B | A2E A2c | dcB c2e |\
fge ^dBd | efg a2f | (g2b) (e2g) | fe^d e3 :|
|:\
ecd e2=g | fed cec | dBc d2f | edc BcA |\
(a2A) (c2A) | d2B cde | fga A2c | BAG A3 :|
W: First Cu. cast off and hands 4 round
W:with the 3d Cu. .| cast up back again
W:and hands 4 round with the 2d Cu. :|
W:1st Cu. lead down the Middle one
W:Cu. up again and cast off :||. Right
W:hands and Left :||:
W:
